X: 24853
T: Maggie's Pancakes
R: reel
M: 4/4
K: Dmajor
fB~B2 fgfe|dB~B2 GBdB|cAAd AAeA|Afed ecAe|
fB~B2 fgfe|dB~B2 GBdB|cAdA eAce|afec Bcde:|
|:fBdB GBdB|caec dB~B2|fBdB GBdB|caec Bcde|
fd~d2 fgfe|dB~B2 GBdB|cAdA eAce|afec Bcde:|

